X:3797
T:Danza (CT 074)
R:Danza
C:Tradicional
S:Música Tradicional Asturiana, (C) Tello & Tito. Asturies, 2001.
S:http://pagina.de/MusTradAst <telloytito@asturies.org>
N:Canción de Baille de Panderu, dicatada por Manuela y Josefa Martínez Martínez, de ochenta y ochenta y dos años, respectivamente, de Llanuces, ayuntamiento de Quirós.
N:Después de habernos cantado esta melodía, dijeron las dos ancianas que esta canción tenía también un tono triste, y entonaron la que figura en el subgrupo A del grupo segundo, señalada con el número CT 149.
O:Llanuces (Quirós)
A:Asturies
Z:Cancioneru de Torner 074
M:6/8
L:1/8
Q:3/8=88
W:Tú dices que no me quieres
W:porque no soy la primera;
W:la flor que primero nace,
W:primero el aire la lleva.
K:C
B
|d2 d edc|d B2 d2 B|G3 ABc|d c2-c z B|
d2 d edc|d B2 d2 B|G3 BBB|(B-B/c/4B/4A/G/4A/4)G3-|G2 z4||


